X:12
T:Prussian’s Hornpipe,The.WM.012
M:4/4
L:1/8
Q:1/2=90
S:Wm.Mittell’s MS, New Romney,Kent,1799
R:.Hornpipe
O:England
A:Kent
Z:vmp.Chris Partington
K:F
C2|FGAB cAfd|cBAGF4|cdef gaba|gf (ef/g/)f4|!
FGAB cAfd|cBAGF2C2|DFEG FdcB|A2F2-F2:|!
|:(fg)|afed gedc|fdcB{B}A2GF|agfe efga|((3edc) ((3dcB)c4|!
afed gedc|fdcB AGFE|FCB,A, B,dcB|A2F2-F2:|

